Images/svg-icons/phone.svg

<svg width="10.000000" height="16.000000" viewBox="0 0 10 16" fill="none" xmlns="http://www.w3.org/2000/svg" xmlns:xlink="http://www.w3.org/1999/xlink">
	<desc>
			Created with Pixso.
	</desc>
	<defs/>
	<path id="Vector" d="M8.5 0L1.5 0C0.672852 0 0 0.672852 0 1.5L0 14.5C0 15.3271 0.672852 16 1.5 16L8.5 16C9.32715 16 10 15.3271 10 14.5L10 1.5C10 0.672852 9.32715 0 8.5 0ZM1.5 1L8.5 1C8.77588 1 9 1.22412 9 1.5L9 12L1 12L1 1.5C1 1.22412 1.22412 1 1.5 1ZM8.5 15L1.5 15C1.22412 15 1 14.7759 1 14.5L1 13L9 13L9 14.5C9 14.7759 8.77588 15 8.5 15Z" fill="#757575" fill-opacity="1.000000" fill-rule="nonzero"/>
</svg>

<svg xmlns="http://www.w3.org/2000/svg" width="10" height="16" fill="none"><path fill="#757575" d="M8.5 0h-7C.673 0 0 .673 0 1.5v13c0 .827.673 1.5 1.5 1.5h7c.827 0 1.5-.673 1.5-1.5v-13C10 .673 9.327 0 8.5 0Zm-7 1h7a.5.5 0 0 1 .5.5V12H1V1.5a.5.5 0 0 1 .5-.5Zm7 14h-7a.5.5 0 0 1-.5-.5V13h8v1.5a.5.5 0 0 1-.5.5Z"/><path fill="#757575" d="M2.354 13.739a.445.445 0 0 1 0 .66.526.526 0 0 1-.708 0 .445.445 0 0 1 0-.66.525.525 0 0 1 .708 0Z"/></svg>
